X: 36922
T: Shore Bar, The
R: hornpipe
M: 4/4
K: Gmajor
|:G2 GD EFGA|B2 BA B2 gf|e2 eg egdB|c3 BBAFD|
G2 GD EFGA|B2 BA B2 gf|e2 eg egdB|cAFD G4:|
|:g2 gf efge|g2 gf e4|g2 gd edBG|c3 BBAFD|
G2 GD EFGA|B2 BA B2 gf|e2 eg egdB|cAFD G4:|

